svg/girl_1525y_outline.svg

<svg width="48" height="48" viewBox="0 0 48 48" fill="none" xmlns="http://www.w3.org/2000/svg">
<path fill-rule="evenodd" clip-rule="evenodd" d="M24.3177 4.56034C24.2507 4.56034 24.1857 4.56693 24.1187 4.56823C24.0907 4.56793 24.0627 4.56443 24.0347 4.56433C24.0217 4.56383 24.0117 4.56423 23.9977 4.56433V4.56233C20.1807 4.45374 13.0768 7.03391 12.8218 16.8862C13.0778 25.5891 10.1178 27.806 10.8278 30.047C13.0178 28.75 15.0568 28.253 17.4897 28.068C17.4917 28.068 17.4927 28.069 17.4937 28.068C17.6127 28.16 17.7227 28.261 17.8517 28.342C20.6227 30.088 21.8487 31.108 24.2887 31.184C25.9596 31.189 28.0266 29.805 30.3316 28.361C30.4606 28.28 30.5746 28.18 30.6966 28.09H30.7006C33.0455 28.287 35.0395 28.788 37.1675 30.049C37.8775 27.808 34.9165 25.5911 35.1715 16.8892C35.0985 9.97767 31.7166 6.15631 27.2186 4.97133C26.3056 4.71023 25.3326 4.56203 24.3177 4.56083V4.56034ZM24.1517 5.09163C24.5677 5.08843 24.9677 5.10663 25.3566 5.14043C25.4306 5.14833 25.5046 5.15653 25.5776 5.16583C31.5486 5.79962 34.4265 10.7418 34.6455 16.3827C34.6675 18.3537 34.6245 19.5736 34.7315 20.8846C35.0965 26.3256 36.7575 27.6155 36.7765 29.2435C34.5865 28.1405 33.3045 27.9045 31.2806 27.6225C31.4106 27.4975 31.5326 27.3565 31.6536 27.2166C31.6756 27.1916 31.6986 27.1696 31.7206 27.1446C31.8916 26.9386 32.0546 26.7216 32.2066 26.4896C32.2786 26.3796 32.3416 26.2606 32.4076 26.1456C32.4796 26.0226 32.5496 25.8996 32.6146 25.7706C32.6776 25.6466 32.7376 25.5206 32.7946 25.3926C32.8665 25.2286 32.9315 25.0616 32.9936 24.8926C33.0296 24.7936 33.0665 24.6976 33.0995 24.5976C33.1755 24.3606 33.2415 24.1196 33.2965 23.8746C33.3085 23.8236 33.3245 23.7756 33.3355 23.7246C33.3365 23.7206 33.3365 23.7176 33.3375 23.7146C33.3475 23.6636 33.3515 23.6116 33.3605 23.5606C33.4755 22.9676 33.5405 22.3556 33.5405 21.7316C33.5325 20.5416 33.5225 19.3617 33.5135 18.1797L33.5155 17.2827C33.5155 17.2827 33.5115 17.0677 33.5075 16.8237L33.0116 16.5697C29.1816 14.0467 17.3817 16.2257 15.9608 11.7967C15.8388 11.4497 15.5388 10.8138 15.3868 10.5738C15.3778 10.6088 15.3748 10.6518 15.3668 10.6878C15.2468 11.0818 15.1468 11.4857 15.0878 11.9037L15.0858 13.6677C15.0778 14.1367 15.0758 14.6147 15.0838 15.1067L15.0778 21.7806C15.0778 22.0696 15.0908 22.3536 15.1088 22.6366C15.1238 22.8666 15.1488 23.0926 15.1758 23.3176C15.1838 23.3886 15.1908 23.4596 15.2008 23.5286C15.2298 23.7386 15.2678 23.9426 15.3088 24.1456C15.3238 24.2246 15.3418 24.3016 15.3588 24.3786C15.4088 24.5986 15.4628 24.8126 15.5268 25.0226C15.5308 25.0366 15.5368 25.0486 15.5408 25.0616C15.8458 26.0486 16.3148 26.9156 16.9668 27.5955C16.8718 27.6005 16.7728 27.6165 16.6798 27.6265H16.5718V27.6385C16.4968 27.6475 16.4228 27.6535 16.3458 27.6635C13.5348 28.0505 12.1958 28.7285 11.2358 29.2165C11.2558 27.5275 12.8478 26.2696 13.2338 20.6246L13.3908 16.0247C13.8578 11.9857 14.6108 11.2328 14.8648 10.6228C15.2208 9.88867 16.1028 8.74898 16.8518 7.91779C18.6687 6.17062 20.5727 5.41522 22.9917 5.17173C23.2637 5.13533 23.5467 5.12863 23.8257 5.11313C23.9357 5.10723 24.0397 5.09573 24.1517 5.09163ZM15.5548 12.1407C16.8418 16.6487 29.0796 14.6277 33.0365 17.1777C33.0475 18.6417 33.0636 20.1066 33.0736 21.5816C33.0736 24.2276 31.9926 26.7046 30.0246 27.9525C27.8366 29.3405 25.8746 30.6685 24.2887 30.6635C21.9727 30.5905 20.8087 29.6115 18.1777 27.9335C16.3188 26.7476 15.5438 24.2876 15.5468 21.6286L15.5548 12.1407ZM20.4797 17.0227C19.9277 17.0237 19.4807 17.4707 19.4797 18.0227C19.4807 18.5757 19.9277 19.0227 20.4797 19.0227C21.0327 19.0227 21.4797 18.5757 21.4797 18.0227C21.4797 17.4707 21.0327 17.0237 20.4797 17.0227ZM27.9896 17.0227C27.4376 17.0237 26.9896 17.4707 26.9896 18.0227C26.9896 18.5757 27.4376 19.0227 27.9896 19.0227C28.5416 19.0227 28.9896 18.5757 28.9896 18.0227C28.9896 17.4707 28.5416 17.0237 27.9896 17.0227ZM24.1717 21.6406C23.6997 21.6466 23.3337 21.7286 23.3337 21.8256C23.3297 21.9286 23.7357 22.0116 24.2357 22.0116C24.7367 22.0116 25.1407 21.9286 25.1366 21.8256C25.1346 21.7236 24.7327 21.6406 24.2357 21.6406C24.2147 21.6396 24.1927 21.6396 24.1717 21.6406ZM23.9387 25.6456C22.2887 25.6506 21.0087 25.7006 21.0037 25.7616C20.9837 25.8256 22.4037 25.8786 24.1617 25.8786C25.9206 25.8786 27.3416 25.8256 27.3216 25.7616C27.3116 25.6976 25.8996 25.6456 24.1617 25.6456H23.9387ZM23.4257 31.1145C23.6907 31.1555 23.9667 31.1815 24.2597 31.1905C24.2687 31.1905 24.2797 31.1875 24.2887 31.1875C23.9837 31.1775 23.6977 31.1535 23.4257 31.1145ZM23.0327 35.3435C22.5537 35.3435 22.1257 35.4445 21.7477 35.6494C21.3697 35.8514 21.0777 36.1334 20.8687 36.4914C20.6637 36.8494 20.5607 37.2444 20.5607 37.6774H21.9787C21.9787 37.3184 22.0697 37.0324 22.2517 36.8134C22.4377 36.5924 22.6887 36.4814 23.0077 36.4814C23.3037 36.4814 23.5337 36.5724 23.6927 36.7554C23.8527 36.9344 23.9317 37.1814 23.9317 37.4974C23.9317 37.7284 23.8557 37.9724 23.7027 38.2294C23.5527 38.4874 23.3197 38.7894 23.0037 39.1344L20.7027 41.5854V42.5544H25.5776V41.4154H22.5197L24.1367 39.7104C24.5797 39.2254 24.8917 38.7994 25.0737 38.4354C25.2566 38.0704 25.3476 37.7124 25.3476 37.3604C25.3476 36.7194 25.1447 36.2224 24.7377 35.8704C24.3337 35.5184 23.7657 35.3435 23.0327 35.3435ZM8.60186 35.4314L5.65649 36.4854V37.6344L7.34207 37.1104V42.5544H8.75416V35.4314H8.60186ZM11.6892 35.4405L11.2792 39.0564L12.4022 39.3334L12.5392 39.2064C12.7472 39.0304 13.0202 38.9424 13.3552 38.9424C13.7202 38.9424 14.0032 39.0504 14.2012 39.2654C14.4002 39.4804 14.4982 39.7894 14.4982 40.1924C14.4982 40.6124 14.4132 40.9404 14.2402 41.1714C14.0682 41.3994 13.8212 41.5134 13.5022 41.5134C13.2152 41.5134 12.9822 41.4314 12.8032 41.2694C12.6272 41.1024 12.5252 40.8724 12.4962 40.5754H11.1002C11.1132 40.9794 11.2242 41.3374 11.4362 41.6534C11.6502 41.9694 11.9432 42.2164 12.3112 42.3924C12.6792 42.5644 13.0782 42.6514 13.5082 42.6514C14.0002 42.6514 14.4262 42.5514 14.7872 42.3534C15.1492 42.1514 15.4252 41.8684 15.6172 41.5074C15.8132 41.1424 15.9102 40.7324 15.9102 40.2724C15.9102 39.5174 15.7182 38.9294 15.3342 38.5094C14.9502 38.0894 14.4202 37.8784 13.7422 37.8784C13.3642 37.8784 13.0072 37.9664 12.6722 38.1454L12.8482 36.6184H15.6762V35.4405H11.6892ZM27.068 35.4405L26.658 39.0564L27.781 39.3334L27.918 39.2064C28.126 39.0304 28.399 38.9424 28.734 38.9424C29.099 38.9424 29.381 39.0504 29.58 39.2654C29.779 39.4804 29.877 39.7894 29.877 40.1924C29.877 40.6124 29.792 40.9404 29.619 41.1714C29.447 41.3994 29.2 41.5134 28.881 41.5134C28.594 41.5134 28.361 41.4314 28.182 41.2694C28.006 41.1024 27.904 40.8724 27.875 40.5754H26.477C26.49 40.9794 26.603 41.3374 26.814 41.6534C27.029 41.9694 27.321 42.2164 27.689 42.3924C28.057 42.5644 28.455 42.6514 28.885 42.6514C29.377 42.6514 29.805 42.5514 30.166 42.3534C30.528 42.1514 30.804 41.8684 30.996 41.5074C31.191 41.1424 31.289 40.7324 31.289 40.2724C31.289 39.5174 31.097 38.9294 30.713 38.5094C30.329 38.0894 29.797 37.8784 29.119 37.8784C28.741 37.8784 28.386 37.9664 28.051 38.1454L28.227 36.6184H31.055V35.4405H27.068ZM31.719 35.4405L34.0549 39.9744V42.5544H35.5429V39.9744L37.8789 35.4405H36.2769L34.7969 38.6454L33.3259 35.4405H31.719ZM40.1799 37.1694C39.5509 37.1694 39.0409 37.3284 38.6499 37.6444C38.2629 37.9564 38.0699 38.3464 38.0699 38.8154C38.0699 39.6204 38.6979 40.1554 39.9549 40.4194C40.3329 40.4974 40.6059 40.5864 40.7749 40.6874C40.9478 40.7844 41.0348 40.9204 41.0348 41.0934C41.0348 41.2594 40.9639 41.3934 40.8239 41.4974C40.6869 41.5984 40.4849 41.6494 40.2149 41.6494C39.9249 41.6494 39.6919 41.5824 39.5199 41.4484C39.3469 41.3154 39.2549 41.1234 39.2419 40.8724H37.9039C37.9039 41.1914 38.0019 41.4904 38.1969 41.7674C38.3929 42.0404 38.6599 42.2574 39.0019 42.4174C39.3469 42.5734 39.7429 42.6514 40.1859 42.6514C40.8399 42.6514 41.3738 42.5024 41.7868 42.2064C42.2008 41.9064 42.4078 41.5164 42.4078 41.0344C42.4078 40.3604 42.0348 39.8864 41.2888 39.6124C41.0478 39.5244 40.7519 39.4464 40.3999 39.3784C40.0489 39.3064 39.7959 39.2224 39.6459 39.1284C39.4999 39.0304 39.4279 38.9034 39.4279 38.7474C39.4279 38.5814 39.4929 38.4444 39.6229 38.3374C39.7529 38.2294 39.9379 38.1754 40.1759 38.1754C40.4529 38.1754 40.6549 38.2424 40.7849 38.3764C40.9149 38.5064 40.9799 38.6724 40.9799 38.8744H42.3928C42.3928 38.3694 42.1908 37.9594 41.7868 37.6444C41.3868 37.3284 40.8509 37.1694 40.1799 37.1694ZM16.8672 38.9384V40.0754H19.6191V38.9384H16.8672Z" fill="#333333"/>
</svg>

<?xml version="1.0" encoding="UTF-8" standalone="no"?>
<!-- Created with Inkscape (http://www.inkscape.org/) -->
<svg id="svg8" xmlns:rdf="http://www.w3.org/1999/02/22-rdf-syntax-ns#" xmlns="http://www.w3.org/2000/svg" height="48" viewBox="0 0 12.7 12.7" width="48" version="1.1" xmlns:cc="http://creativecommons.org/ns#" xmlns:dc="http://purl.org/dc/elements/1.1/">
 <title id="title4753">UIO-icon</title>
 <metadata id="metadata5">
  <rdf:RDF>
   <cc:Work rdf:about="">
    <dc:format>image/svg+xml</dc:format>
    <dc:type rdf:resource="http://purl.org/dc/dcmitype/StillImage"/>
    <dc:title>UIO-icon</dc:title>
    <dc:creator>
     <cc:Agent>
      <dc:title>Joaquín Urbano</dc:title>
     </cc:Agent>
    </dc:creator>
    <dc:rights>
     <cc:Agent>
      <dc:title>GPL</dc:title>
     </cc:Agent>
    </dc:rights>
   </cc:Work>
  </rdf:RDF>
 </metadata>
 <path id="rect4852" d="m24.318 4.5605c-0.067 0-0.132 0.0066-0.199 0.0079-0.028-0.0003-0.056-0.0038-0.084-0.0039-0.013-0.0005-0.023-0.0001-0.037 0v-0.002c-3.817-0.1086-10.921 2.4716-11.176 12.324 0.256 8.703-2.704 10.92-1.994 13.161 2.19-1.297 4.229-1.794 6.662-1.979 0.002 0 0.003 0.001 0.004 0 0.119 0.092 0.229 0.193 0.358 0.274 2.771 1.746 3.997 2.766 6.437 2.842 1.671 0.005 3.738-1.379 6.043-2.823 0.129-0.081 0.243-0.181 0.365-0.271h0.004c2.345 0.197 4.339 0.698 6.467 1.959 0.71-2.241-2.251-4.458-1.996-13.16-0.073-6.9116-3.455-10.733-7.953-11.918-0.913-0.2611-1.886-0.4093-2.901-0.4105zm-0.166 0.5313c0.416-0.0032 0.816 0.015 1.205 0.0488 0.074 0.0079 0.148 0.0161 0.221 0.0254 5.971 0.6338 8.849 5.576 9.068 11.217 0.022 1.971-0.021 3.191 0.086 4.502 0.365 5.441 2.026 6.731 2.045 8.359-2.19-1.103-3.472-1.339-5.496-1.621 0.13-0.125 0.252-0.266 0.373-0.406 0.022-0.025 0.045-0.047 0.067-0.072 0.171-0.206 0.334-0.423 0.486-0.655 0.072-0.11 0.135-0.229 0.201-0.344 0.072-0.123 0.142-0.246 0.207-0.375 0.063-0.124 0.123-0.25 0.18-0.378 0.072-0.164 0.137-0.331 0.199-0.5 0.036-0.099 0.073-0.195 0.106-0.295 0.076-0.237 0.142-0.478 0.197-0.723 0.012-0.051 0.028-0.099 0.039-0.15 0.001-0.004 0.001-0.007 0.002-0.01 0.01-0.051 0.014-0.103 0.023-0.154 0.115-0.593 0.18-1.205 0.18-1.829-0.008-1.19-0.018-2.37-0.027-3.552l0.002-0.897s-0.004-0.215-0.008-0.459l-0.496-0.254c-3.83-2.523-15.63-0.344-17.051-4.773-0.122-0.347-0.422-0.983-0.574-1.223-0.009 0.035-0.012 0.078-0.02 0.114-0.12 0.394-0.22 0.798-0.279 1.216l-0.002 1.764c-0.008 0.469-0.01 0.947-0.002 1.439l-0.006 6.674c0 0.289 0.013 0.573 0.031 0.856 0.015 0.23 0.04 0.456 0.067 0.681 0.008 0.071 0.015 0.142 0.025 0.211 0.029 0.21 0.067 0.414 0.108 0.617 0.015 0.079 0.033 0.156 0.05 0.233 0.05 0.22 0.104 0.434 0.168 0.644 0.004 0.014 0.01 0.026 0.014 0.039 0.305 0.987 0.774 1.854 1.426 2.534-0.095 0.005-0.194 0.021-0.287 0.031h-0.108v0.012c-0.075 0.009-0.149 0.015-0.226 0.025-2.811 0.387-4.15 1.065-5.11 1.553 0.02-1.689 1.612-2.947 1.998-8.592l0.157-4.6c0.467-4.039 1.22-4.792 1.474-5.402 0.356-0.7341 1.238-1.8738 1.987-2.705 1.817-1.7472 3.721-2.5026 6.14-2.7461 0.272-0.0364 0.555-0.0431 0.834-0.0586 0.11-0.0059 0.214-0.0174 0.326-0.0215zm-8.597 7.0492c1.287 4.508 13.525 2.487 17.482 5.037 0.011 1.464 0.027 2.929 0.037 4.404 0 2.646-1.081 5.123-3.049 6.371-2.188 1.388-4.15 2.716-5.736 2.711-2.316-0.073-3.48-1.052-6.111-2.73-1.859-1.186-2.634-3.646-2.631-6.305l0.008-9.488zm4.925 4.882c-0.552 0.001-0.999 0.448-1 1 0.001 0.553 0.448 1 1 1 0.553 0 1-0.447 1-1 0-0.552-0.447-0.999-1-1zm7.51 0c-0.552 0.001-1 0.448-1 1 0 0.553 0.448 1 1 1s1-0.447 1-1c0-0.552-0.448-0.999-1-1zm-3.818 4.618c-0.472 0.006-0.838 0.088-0.838 0.185-0.004 0.103 0.402 0.186 0.902 0.186 0.501 0 0.905-0.083 0.901-0.186-0.002-0.102-0.404-0.185-0.901-0.185-0.021-0.001-0.043-0.001-0.064 0zm-0.233 4.005c-1.65 0.005-2.93 0.055-2.935 0.116-0.02 0.064 1.4 0.117 3.158 0.117 1.759 0 3.18-0.053 3.16-0.117-0.01-0.064-1.422-0.116-3.16-0.116h-0.223zm-0.513 5.469c0.265 0.041 0.541 0.067 0.834 0.076 0.009 0 0.02-0.003 0.029-0.003-0.305-0.01-0.591-0.034-0.863-0.073zm-0.393 4.229c-0.479 0-0.907 0.101-1.285 0.306-0.378 0.202-0.67 0.484-0.879 0.842-0.205 0.358-0.308 0.753-0.308 1.186h1.418c0-0.359 0.091-0.645 0.273-0.864 0.186-0.221 0.437-0.332 0.756-0.332 0.296 0 0.526 0.091 0.685 0.274 0.16 0.179 0.239 0.426 0.239 0.742 0 0.231-0.076 0.475-0.229 0.732-0.15 0.258-0.383 0.56-0.699 0.905l-2.301 2.451v0.969h4.875v-1.139h-3.058l1.617-1.705c0.443-0.485 0.755-0.911 0.937-1.275 0.183-0.365 0.274-0.723 0.274-1.075 0-0.641-0.203-1.138-0.61-1.49-0.404-0.352-0.972-0.527-1.705-0.527zm-14.431 0.088l-2.9454 1.054v1.149l1.6856-0.524v5.444h1.4121v-7.123h-0.1523zm3.0874 0.009l-0.41 3.616 1.123 0.277 0.137-0.127c0.208-0.176 0.481-0.264 0.816-0.264 0.365 0 0.648 0.108 0.846 0.323 0.199 0.215 0.297 0.524 0.297 0.927 0 0.42-0.085 0.748-0.258 0.979-0.172 0.228-0.419 0.342-0.738 0.342-0.287 0-0.52-0.082-0.699-0.244-0.176-0.167-0.278-0.397-0.307-0.694h-1.396c0.013 0.404 0.124 0.762 0.336 1.078 0.214 0.316 0.507 0.563 0.875 0.739 0.368 0.172 0.767 0.259 1.197 0.259 0.492 0 0.918-0.1 1.279-0.298 0.362-0.202 0.638-0.485 0.83-0.846 0.196-0.365 0.293-0.775 0.293-1.235 0-0.755-0.192-1.343-0.576-1.763s-0.914-0.631-1.592-0.631c-0.378 0-0.735 0.088-1.07 0.267l0.176-1.527h2.828v-1.178h-3.987zm15.379 0l-0.41 3.616 1.123 0.277 0.137-0.127c0.208-0.176 0.481-0.264 0.816-0.264 0.365 0 0.647 0.108 0.846 0.323s0.297 0.524 0.297 0.927c0 0.42-0.085 0.748-0.258 0.979-0.172 0.228-0.419 0.342-0.738 0.342-0.287 0-0.52-0.082-0.699-0.244-0.176-0.167-0.278-0.397-0.307-0.694h-1.398c0.013 0.404 0.126 0.762 0.337 1.078 0.215 0.316 0.507 0.563 0.875 0.739 0.368 0.172 0.766 0.259 1.196 0.259 0.492 0 0.92-0.1 1.281-0.298 0.362-0.202 0.638-0.485 0.83-0.846 0.195-0.365 0.293-0.775 0.293-1.235 0-0.755-0.192-1.343-0.576-1.763s-0.916-0.631-1.594-0.631c-0.378 0-0.733 0.088-1.068 0.267l0.176-1.527h2.828v-1.178h-3.987zm4.651 0l2.336 4.534v2.58h1.488v-2.58l2.336-4.534h-1.602l-1.48 3.205-1.471-3.205h-1.607zm8.461 1.729c-0.629 0-1.139 0.159-1.53 0.475-0.387 0.312-0.58 0.702-0.58 1.171 0 0.805 0.628 1.34 1.885 1.604 0.378 0.078 0.651 0.167 0.82 0.268 0.173 0.097 0.26 0.233 0.26 0.406 0 0.166-0.071 0.3-0.211 0.404-0.137 0.101-0.339 0.152-0.609 0.152-0.29 0-0.523-0.067-0.695-0.201-0.173-0.133-0.265-0.325-0.278-0.576h-1.338c0 0.319 0.098 0.618 0.293 0.895 0.196 0.273 0.463 0.49 0.805 0.65 0.345 0.156 0.741 0.234 1.184 0.234 0.654 0 1.188-0.149 1.601-0.445 0.414-0.3 0.621-0.69 0.621-1.172 0-0.674-0.373-1.148-1.119-1.422-0.241-0.088-0.537-0.166-0.889-0.234-0.351-0.072-0.604-0.156-0.754-0.25-0.146-0.098-0.218-0.225-0.218-0.381 0-0.166 0.065-0.303 0.195-0.41 0.13-0.108 0.315-0.162 0.553-0.162 0.277 0 0.479 0.067 0.609 0.201 0.13 0.13 0.195 0.296 0.195 0.498h1.413c0-0.505-0.202-0.915-0.606-1.23-0.4-0.316-0.936-0.475-1.607-0.475zm-23.313 1.769v1.137h2.752v-1.137h-2.752z" fill-rule="evenodd" transform="scale(.26458)" stroke-width="3.7795" fill="#333"/>
</svg>
